assets/svg/toolbar-underline.svg

<svg width="50" height="50" xmlns="http://www.w3.org/2000/svg"><defs><path d="M46.5 47h-42a1.5 1.5 0 100 3h42a1.5 1.5 0 100-3M9.923 33.263c-.439-2.042-.658-3.971-.658-5.786V0h4.514v26.98c0 2.105.209 3.911.628 5.416.418 1.506.969 2.775 1.657 3.805.695 1.033 1.465 1.849 2.322 2.445.857.6 1.715 1.063 2.571 1.393.857.33 1.684.546 2.475.649.796.104 1.484.154 2.071.154.54 0 1.219-.05 2.035-.154a10.725 10.725 0 002.51-.649c.851-.33 1.709-.793 2.566-1.393.857-.596 1.632-1.412 2.322-2.445.688-1.03 1.244-2.299 1.662-3.805.419-1.505.628-3.311.628-5.416V0h4.509v27.477c0 1.815-.219 3.744-.658 5.786a15.466 15.466 0 01-2.473 5.66c-1.215 1.735-2.874 3.168-4.985 4.304-2.112 1.133-4.816 1.699-8.116 1.699-3.347 0-6.061-.566-8.152-1.699-2.087-1.136-3.74-2.569-4.949-4.304a15.379 15.379 0 01-2.479-5.66" id="path-1"/></defs></svg>

<svg width="50px" height="50px" viewBox="0 0 50 50" version="1.1" xmlns="http://www.w3.org/2000/svg" xmlns:xlink="http://www.w3.org/1999/xlink">
    <defs>
        <path d="M46.5,47 L4.5,47 C3.672,47 3,47.671 3,48.5 C3,49.329 3.672,50 4.5,50 L46.5,50 C47.328,50 48,49.329 48,48.5 C48,47.671 47.328,47 46.5,47 M9.923,33.263 C9.484,31.221 9.265,29.292 9.265,27.477 L9.265,0 L13.779,0 L13.779,26.98 C13.779,29.085 13.988,30.891 14.407,32.396 C14.825,33.902 15.376,35.171 16.064,36.201 C16.759,37.234 17.529,38.05 18.386,38.646 C19.243,39.246 20.101,39.709 20.957,40.039 C21.814,40.369 22.641,40.585 23.432,40.688 C24.228,40.792 24.916,40.842 25.503,40.842 C26.043,40.842 26.722,40.792 27.538,40.688 C28.354,40.585 29.191,40.369 30.048,40.039 C30.899,39.709 31.757,39.246 32.614,38.646 C33.471,38.05 34.246,37.234 34.936,36.201 C35.624,35.171 36.18,33.902 36.598,32.396 C37.017,30.891 37.226,29.085 37.226,26.98 L37.226,0 L41.735,0 L41.735,27.477 C41.735,29.292 41.516,31.221 41.077,33.263 C40.639,35.305 39.813,37.191 38.604,38.923 C37.389,40.658 35.73,42.091 33.619,43.227 C31.507,44.36 28.803,44.926 25.503,44.926 C22.156,44.926 19.442,44.36 17.351,43.227 C15.264,42.091 13.611,40.658 12.402,38.923 C11.187,37.191 10.361,35.305 9.923,33.263" id="path-1"></path>
    </defs>
</svg>
